Icons/Colored/BypassQuestionmark.svg

<svg xmlns="http://www.w3.org/2000/svg" xml:space="preserve" fill-rule="evenodd" stroke-linejoin="round" stroke-miterlimit="2" clip-rule="evenodd" viewBox="0 0 64 64">
  <g id="blue">
    <path fill="#73a7c7" fill-rule="nonzero" d="M1.993 46.87s9.705-2.207 10.163-5.244c.437-2.9-2.367-10.303-2.163-12.67.449-5.254 3.603-8.353 6.852-9.806 7.614-3.394 16.112-6.68 19.438-6.124 4.438.742 8.802 8.558 8.802 8.558l3.77 4.924c1.798 1.756 3.497 1.551 5.142.256l-3.331-5.913 11.341 4.111-2.398 12.41-3.194-5.344c-3.295 1.824-6.589 1.986-9.884.301-2.965-2.391-5.366-5.347-7.416-8.654 0 0-2.335-3.655-4.694-3.876-2.186-.202-10.126 3.328-16.512 6.149-3.826 1.692 2.093 14.307.196 18.488-1.897 4.181-11.578 6.6-11.578 6.6L1.993 46.87Z"/>
  </g>
  <g id="red">
    <path fill="#f00" fill-rule="nonzero" d="M28.969 44.203h3.956v-.914c0-4.604 5.651-4.4 5.651-9.986 0-3.824-2.535-6.765-7.274-6.765-4.637 0-7.883 2.941-7.883 8.051h3.956c0-2.708 1.425-4.299 3.927-4.299 2.132 0 3.319 1.287 3.319 3.013 0 3.859-5.652 3.622-5.652 9.952v.948Zm1.995 6.833c1.522 0 2.705-1.15 2.705-2.638 0-1.454-1.183-2.638-2.705-2.638-1.556 0-2.705 1.184-2.705 2.638 0 1.488 1.149 2.638 2.705 2.638Z"/>
  </g>
</svg>

<?xml version="1.0" encoding="UTF-8" standalone="no"?>
<!DOCTYPE svg PUBLIC "-//W3C//DTD SVG 1.1//EN" "http://www.w3.org/Graphics/SVG/1.1/DTD/svg11.dtd">
<svg width="100%" height="100%" viewBox="0 0 64 64" version="1.1" xmlns="http://www.w3.org/2000/svg" xmlns:xlink="http://www.w3.org/1999/xlink" xml:space="preserve" xmlns:serif="http://www.serif.com/" style="fill-rule:evenodd;clip-rule:evenodd;stroke-linejoin:round;stroke-miterlimit:2;">
    <g id="surface1">
        <path d="M28.969,44.203L32.925,44.203L32.925,43.289C32.925,38.685 38.576,38.889 38.576,33.303C38.576,29.479 36.041,26.538 31.302,26.538C26.665,26.538 23.419,29.479 23.419,34.589L27.375,34.589C27.375,31.881 28.8,30.29 31.302,30.29C33.434,30.29 34.621,31.577 34.621,33.303C34.621,37.162 28.969,36.925 28.969,43.255L28.969,44.203ZM30.964,51.036C32.486,51.036 33.669,49.886 33.669,48.398C33.669,46.944 32.486,45.76 30.964,45.76C29.408,45.76 28.259,46.944 28.259,48.398C28.259,49.886 29.408,51.036 30.964,51.036Z" style="fill:#f00;fill-rule:nonzero;"/>
        <path d="M1.993,46.87C1.993,46.87 11.698,44.663 12.156,41.626C12.593,38.726 9.789,31.323 9.993,28.956C10.442,23.702 13.596,20.603 16.845,19.15C24.459,15.756 32.957,12.47 36.283,13.026C40.721,13.768 45.085,21.584 45.085,21.584L48.855,26.508C50.653,28.264 52.352,28.059 53.997,26.764L50.666,20.851L62.007,24.962L59.609,37.372L56.415,32.028C53.12,33.852 49.826,34.014 46.531,32.329C43.566,29.938 41.165,26.982 39.115,23.675C39.115,23.675 36.78,20.02 34.421,19.799C32.235,19.597 24.295,23.127 17.909,25.948C14.083,27.64 20.002,40.255 18.105,44.436C16.208,48.617 6.527,51.036 6.527,51.036L1.993,46.87Z" style="fill:#73a7c7;fill-rule:nonzero;"/>
    </g>
</svg>
